src/main/resources/icons/CLionIcons/artwork/clion.svg

<svg xmlns="http://www.w3.org/2000/svg" xmlns:xlink="http://www.w3.org/1999/xlink" width="64" height="64" viewBox="0 0 64 64">
  <defs>
    <linearGradient id="clion-b" x1="50%" x2="103.297%" y1="28.391%" y2="69.421%">
      <stop offset="0%" stop-color="#FF318C"/>
      <stop offset="100%" stop-color="#009AE5"/>
    </linearGradient>
    <polygon id="clion-a" points="24 0 20.3 27.7 24.6 25.9 38.9 8.1"/>
    <linearGradient id="clion-d" x1="46.609%" x2="38.287%" y1="50%" y2="108.628%">
      <stop offset="0%" stop-color="#21D789"/>
      <stop offset="100%" stop-color="#009AE5"/>
    </linearGradient>
    <polygon id="clion-c" points="5.9 11.6 0 47 22.3 38.4 24 0"/>
    <linearGradient id="clion-f" x1="87.515%" x2="13.422%" y1="4.52%" y2="78.894%">
      <stop offset="0%" stop-color="#21D789"/>
      <stop offset="100%" stop-color="#009AE5"/>
    </linearGradient>
    <polygon id="clion-e" points="38.9 8.1 27.5 20.7 0 47 20.8 62.2 46.8 38.6 62.701 19.2 54.5 2.4"/>
    <linearGradient id="clion-h" x1="30.528%" x2="78.5%" y1="56.312%" y2="79.566%">
      <stop offset="0%" stop-color="#21D789"/>
      <stop offset="100%" stop-color="#009AE5"/>
    </linearGradient>
    <polygon id="clion-g" points="23.3 49.2 37.9 60.499 53.9 64 64 41.2 26.9 27.299"/>
    <linearGradient id="clion-j" x1="50%" x2="50%" y1="-11.618%" y2="60.589%">
      <stop offset="0%" stop-color="#A6A5A5"/>
      <stop offset="0%" stop-color="#989898" stop-opacity=".568"/>
      <stop offset="100%"/>
    </linearGradient>
    <polygon id="clion-i" points="0 40 40 40 40 0 0 0"/>
  </defs>
  <g fill="none" fill-rule="evenodd">
    <use fill="#FF318C" xlink:href="#clion-a"/>
    <use fill="url(#clion-b)" xlink:href="#clion-a"/>
    <use fill="#21D789" xlink:href="#clion-c"/>
    <use fill="url(#clion-d)" xlink:href="#clion-c"/>
    <use fill="#21D789" xlink:href="#clion-e"/>
    <use fill="url(#clion-f)" xlink:href="#clion-e"/>
    <use fill="#21D789" xlink:href="#clion-g"/>
    <use fill="url(#clion-h)" xlink:href="#clion-g"/>
    <g transform="translate(12 12)">
      <use fill="#000" xlink:href="#clion-i"/>
      <use fill="url(#clion-j)" xlink:href="#clion-i"/>
      <path fill="#FFF" d="M3.1938,13.5615 L3.1938,13.5135 C3.1938,8.8025 6.7448,4.9435 11.8358,4.9435 C14.9608,4.9435 16.8318,5.9845 18.3698,7.4995 L16.0498,10.1755 C14.7718,9.0155 13.4698,8.3055 11.8118,8.3055 C9.0188,8.3055 7.0058,10.6255 7.0058,13.4665 L7.0058,13.5135 C7.0058,16.3555 8.9708,18.7225 11.8118,18.7225 C13.7058,18.7225 14.8658,17.9645 16.1678,16.7815 L18.4888,19.1255 C16.7838,20.9485 14.8898,22.0855 11.6938,22.0855 C6.8168,22.0855 3.1938,18.3215 3.1938,13.5615"/>
      <polygon fill="#FFF" points="21 5 24.744 5 24.744 18.854 32.169 18.854 32.169 22 21 22"/>
      <polygon fill="#FFF" points="4 35 19 35 19 32.5 4 32.5"/>
    </g>
  </g>
</svg>

<svg xmlns="http://www.w3.org/2000/svg" xmlns:xlink="http://www.w3.org/1999/xlink" width="64" height="64" viewBox="0 0 64 64"><rect id="frame" width="64" height="64" fill="none"/><defs><linearGradient id="b" x1="50%" x2="103.297%" y1="28.391%" y2="69.421%"><stop offset="0%" stop-color="#FF318C"/><stop offset="100%" stop-color="#009AE5"/></linearGradient><path id="a" d="M24 0l-3.7 27.7 4.3-1.8L38.9 8.1z"/><linearGradient id="d" x1="46.609%" x2="38.287%" y1="50%" y2="108.628%"><stop offset="0%" stop-color="#21D789"/><stop offset="100%" stop-color="#009AE5"/></linearGradient><path id="c" d="M5.9 11.6L0 47l22.3-8.6L24 0z"/><linearGradient id="f" x1="87.515%" x2="13.422%" y1="4.52%" y2="78.894%"><stop offset="0%" stop-color="#21D789"/><stop offset="100%" stop-color="#009AE5"/></linearGradient><path id="e" d="M38.9 8.1L27.5 20.7 0 47l20.8 15.2 26-23.6 15.901-19.4L54.5 2.4z"/><linearGradient id="h" x1="30.528%" x2="78.5%" y1="56.312%" y2="79.566%"><stop offset="0%" stop-color="#21D789"/><stop offset="100%" stop-color="#009AE5"/></linearGradient><path id="g" d="M23.3 49.2l14.6 11.299L53.9 64 64 41.2 26.9 27.299z"/><linearGradient id="j" x1="50%" x2="50%" y1="-11.618%" y2="60.589%"><stop offset="0%" stop-color="#A6A5A5"/><stop offset="0%" stop-color="#989898" stop-opacity=".568"/><stop offset="100%"/></linearGradient><path id="i" d="M0 40h40V0H0z"/></defs><g fill="none" fill-rule="evenodd"><use fill="#FF318C" xlink:href="#a"/><use fill="url(#b)" xlink:href="#a"/><use fill="#21D789" xlink:href="#c"/><use fill="url(#d)" xlink:href="#c"/><use fill="#21D789" xlink:href="#e"/><use fill="url(#f)" xlink:href="#e"/><use fill="#21D789" xlink:href="#g"/><use fill="url(#h)" xlink:href="#g"/><g transform="translate(12 12)"><use fill="#000" xlink:href="#i"/><use fill="url(#j)" xlink:href="#i"/><path fill="#FFF" d="M3.194 13.562v-.048c0-4.711 3.55-8.57 8.642-8.57 3.125 0 4.996 1.04 6.534 2.556l-2.32 2.675c-1.278-1.16-2.58-1.87-4.238-1.87-2.793 0-4.806 2.32-4.806 5.162v.046c0 2.842 1.965 5.21 4.806 5.21 1.894 0 3.054-.758 4.356-1.941l2.32 2.343c-1.704 1.823-3.598 2.96-6.794 2.96-4.877 0-8.5-3.764-8.5-8.524"/><path fill="#FFF" d="M21 5h3.744v13.854h7.425V22H21z"/><path fill="#FFF" d="M4 35h15v-2.5H4z"/></g></g></svg>
